libs/ui/packages/crypto-icons/src/svg/RAP.svg

<svg width="24" height="24" viewBox="0 0 24 24" fill="none">
<path d="M8.90214 4.85887V19.4674H6.29364V4.53262H8.90214V4.85887ZM10.7614 4.53262H12.2284C15.2614 4.53262 17.2834 6.45637 17.2834 9.19537C17.2834 11.4131 16.0759 13.1089 13.8911 13.6631L17.7064 19.4674H14.6411L9.42414 11.3801H11.9351C13.5979 11.3801 14.6411 10.6301 14.6411 9.16312C14.6411 7.69537 13.5986 6.94537 11.9351 6.94537H10.7936V4.53262H10.7614Z" fill="black"/>
</svg>

<svg width="24" height="24" viewBox="0 0 24 24" fill="none"><path fill="#000" d="M8.902 4.859v14.608H6.294V4.533h2.608zm1.86-.326h1.466c3.033 0 5.055 1.923 5.055 4.662 0 2.218-1.207 3.914-3.392 4.468l3.815 5.804h-3.065L9.424 11.38h2.511c1.663 0 2.706-.75 2.706-2.217S13.6 6.945 11.935 6.945h-1.141V4.533z"/></svg>
